packages/blockchain-info-components/src/Images/img/banks/bank-logo-robinhood.svg

<svg fill="none" height="32" viewBox="0 0 32 32" width="32" xmlns="http://www.w3.org/2000/svg"><path clip-rule="evenodd" d="m21.6894 4.00321c1.1009.03336 1.7847.22796 2.2684.65052v-.00002c.5505.48372 1.201 2.36298.7451 4.89277 0 .16124-.0612.26132-.1946.42255-1.2621 1.46227-2.4965 3.01907-3.5973 4.60367l-.0667.1001c0 .0333-.0334.0333-.0612.0333h-.0334c-.0333 0-.0667-.0333-.0667-.0667v-.1279c-.1946-1.9126-.2557-3.8919-.2279-5.87129 0-.12787-.0612-.26131-.1613-.35583-.0945-.10008-.2279-.12788-.3558-.12788-1.9794.2224-3.9865.55044-5.9992.96744l-.1279.03336c-.0333.03335-.0667 0-.1001-.03336-.0333-.02782-.0333-.06117 0-.09453l.1001-.10007c1.2288-1.35663 2.5298-2.71882 3.892-3.98649.1279-.12788.2891-.26132.4837-.32248 1.3288-.42256 2.5298-.65052 3.5028-.61716zm-10.9329 17.17479-.0001.0002c-.0418.0773-.0754.1395-.0924.1721s-.4225.8117-.5838 1.2009c-.8451 1.7181-1.59014 3.4695-2.24065 5.2542l-.0278.1279-.0001.0001c-.03333.0333-.06664.0666-.09998.0666h-.65051c-.02779 0-.0278 0-.06115-.0334h-.00001v-.0611s1.00635-4.2812 2.14058-7.5282c-.45591-1.7792-.77839-4.1811-.77839-4.1811s0-.228.06116-.3225c1.23431-1.8515 2.59655-3.6362 4.02545-5.3542 0-.0334.1278-.1279.3224-.1946 1.8793-.45039 3.8253-.81178 5.7101-1.06754l.1279-.03337c.0334-.03336.0667 0 .0945.03336.0334.03336.0334.06116 0 .09452l-.0611.10008c-2.919 3.36935-5.4488 7.06675-7.5227 10.99205v.0334c-.0497.12-.2412.4745-.3633.7005zm3.5715 1.7013.1613-.0667h.0004s.0332 0 .0667.0335v.0611l-.4893.973c-.0612.1001-.1612.1613-.1612.1613-.3928.2088-.9681.4806-1.5767.7683-.3476.1642-.7061.3336-1.0476.4993h-.0335c-.2278.1061-.4471.2255-.6557.339-.2396.1304-.4651.2532-.67315.3394l-.16122.0666h-.03349l-.03348-.0334v-.0612l.06672-.1668c.04647-.0956.11711-.2692.19608-.4632l.00002-.0001c.08172-.2007.17232-.4233.25422-.6042.0295-.0886.059-.1467.0885-.2051l.0116-.0229s.0612-.0943.1279-.1278c1.3622-.6172 2.8522-1.1343 3.8919-1.4901zm5.2542-12.7157v-.1279c0-.033-.0326-.06578-.0654-.0987l-.0013-.00132c-.0335 0-.0612.00001-.0945.0335l-.0668.10002c-3.4027 3.9532-6.2605 8.3011-8.4956 12.9714l-.0667.1279c0 .0335 0 .0667.0335.1.0335.0279.0335.0279.0668.0279h.0334l.0946-.0279c1.9126-.7783 3.8586-1.4956 5.8046-2.046.1278-.0335.2279-.1279.2613-.228.8396-1.6513 2.8189-4.8649 2.8189-4.8649.0667-.0612.0335-.1946.0335-.1946s-.3225-3.8253-.3558-5.7713z" fill="#1ecc97" fill-rule="evenodd"/></svg>

<svg width="32" height="32" viewBox="0 0 32 32" fill="none" xmlns="http://www.w3.org/2000/svg">
<path fill-rule="evenodd" clip-rule="evenodd" d="M21.6894 4.00321C22.7903 4.03657 23.4741 4.23117 23.9578 4.65373L23.9578 4.65371C24.5083 5.13743 25.1588 7.01669 24.7029 9.54648C24.7029 9.70772 24.6417 9.8078 24.5083 9.96903C23.2462 11.4313 22.0118 12.9881 20.911 14.5727L20.8443 14.6728C20.8443 14.7061 20.8109 14.7061 20.7831 14.7061H20.7497C20.7164 14.7061 20.683 14.6728 20.683 14.6394V14.5115C20.4884 12.5989 20.4273 10.6196 20.4551 8.64021C20.4551 8.51234 20.3939 8.3789 20.2938 8.28438C20.1993 8.1843 20.0659 8.1565 19.938 8.1565C17.9586 8.3789 15.9515 8.70694 13.9388 9.12394L13.8109 9.1573C13.7776 9.19065 13.7442 9.1573 13.7108 9.12394L13.7108 9.12394C13.6775 9.09612 13.6775 9.06277 13.7108 9.02941L13.8109 8.92934C15.0397 7.57271 16.3407 6.21052 17.7029 4.94285C17.8308 4.81497 17.992 4.68153 18.1866 4.62037C19.5154 4.19781 20.7164 3.96985 21.6894 4.00321ZM10.7565 21.178L10.7564 21.1782C10.7146 21.2555 10.681 21.3177 10.664 21.3503V21.3503C10.664 21.3503 10.2415 22.162 10.0802 22.5512C9.2351 24.2693 8.49006 26.0207 7.83955 27.8054L7.81175 27.9333L7.81165 27.9334C7.77832 27.9667 7.74501 28 7.71167 28H7.06116C7.03337 28 7.03336 28 7.00001 27.9666L7 27.9666V27.9055C7 27.9055 8.00635 23.6243 9.14058 20.3773C8.68467 18.5981 8.36219 16.1962 8.36219 16.1962C8.36219 16.1962 8.36219 15.9682 8.42335 15.8737C9.65766 14.0222 11.0199 12.2375 12.4488 10.5195C12.4488 10.4861 12.5766 10.3916 12.7712 10.3249C14.6505 9.87451 16.5965 9.51312 18.4813 9.25736L18.6092 9.22399C18.6426 9.19063 18.6759 9.22399 18.7037 9.25735C18.7371 9.29071 18.7371 9.31851 18.7037 9.35187L18.6426 9.45195C15.7236 12.8213 13.1938 16.5187 11.1199 20.444V20.4774C11.0702 20.5974 10.8787 20.9519 10.7566 21.1779L10.7565 21.178L10.7565 21.178ZM14.328 22.8793L14.4893 22.8126L14.4897 22.8126C14.4897 22.8126 14.5229 22.8126 14.5564 22.8461V22.9072L14.0671 23.8802C14.0059 23.9803 13.9059 24.0415 13.9059 24.0415C13.5131 24.2503 12.9378 24.5221 12.3292 24.8098C11.9816 24.974 11.6231 25.1434 11.2816 25.3091H11.2481C11.0203 25.4152 10.801 25.5346 10.5924 25.6481L10.5924 25.6481C10.3528 25.7785 10.1273 25.9013 9.91925 25.9875L9.75803 26.0541H9.72454L9.69106 26.0207V25.9595L9.75778 25.7927C9.80425 25.6971 9.87489 25.5235 9.95386 25.3295L9.95388 25.3294C10.0356 25.1287 10.1262 24.9061 10.2081 24.7252C10.2376 24.6366 10.2671 24.5785 10.2966 24.5201L10.3082 24.4972C10.3082 24.4972 10.3694 24.4029 10.4361 24.3694C11.7983 23.7522 13.2883 23.2351 14.328 22.8793ZM19.5822 10.1636V10.0357C19.5822 10.0027 19.5496 9.96992 19.5168 9.937L19.5155 9.93568C19.482 9.93568 19.4543 9.93569 19.421 9.96918L19.3542 10.0692C15.9515 14.0224 13.0937 18.3703 10.8586 23.0406L10.7919 23.1685C10.7919 23.202 10.7919 23.2352 10.8254 23.2685C10.8589 23.2964 10.8589 23.2964 10.8922 23.2964H10.9256L11.0202 23.2685C12.9328 22.4902 14.8788 21.7729 16.8248 21.2225C16.9526 21.189 17.0527 21.0946 17.0861 20.9945C17.9257 19.3432 19.905 16.1296 19.905 16.1296C19.9717 16.0684 19.9385 15.935 19.9385 15.935C19.9385 15.935 19.616 12.1097 19.5827 10.1637L19.5822 10.1636Z" fill="#1ECC97"/>
</svg>
